images/37302.svg

<?xml version="1.0" encoding="UTF-8"?>
<svg xmlns="http://www.w3.org/2000/svg" xmlns:xlink="http://www.w3.org/1999/xlink" width="300pt" height="300pt" viewBox="0 0 300 300" version="1.1">
<defs>
<g>
<symbol overflow="visible" id="glyph0-0">
<path style="stroke:none;" d="M 0.453125 1.59375 L 0.453125 -6.34375 L 4.953125 -6.34375 L 4.953125 1.59375 Z M 0.953125 1.09375 L 4.453125 1.09375 L 4.453125 -5.84375 L 0.953125 -5.84375 Z M 0.953125 1.09375 "/>
</symbol>
<symbol overflow="visible" id="glyph0-1">
<path style="stroke:none;" d="M 3.546875 -5.953125 C 2.898438 -5.953125 2.382812 -5.710938 2 -5.234375 C 1.625 -4.753906 1.4375 -4.101562 1.4375 -3.28125 C 1.4375 -2.445312 1.625 -1.789062 2 -1.3125 C 2.382812 -0.832031 2.898438 -0.59375 3.546875 -0.59375 C 4.191406 -0.59375 4.703125 -0.832031 5.078125 -1.3125 C 5.453125 -1.789062 5.640625 -2.445312 5.640625 -3.28125 C 5.640625 -4.101562 5.453125 -4.753906 5.078125 -5.234375 C 4.703125 -5.710938 4.191406 -5.953125 3.546875 -5.953125 Z M 3.546875 -6.6875 C 4.460938 -6.6875 5.195312 -6.375 5.75 -5.75 C 6.300781 -5.132812 6.578125 -4.3125 6.578125 -3.28125 C 6.578125 -2.238281 6.300781 -1.410156 5.75 -0.796875 C 5.195312 -0.179688 4.460938 0.125 3.546875 0.125 C 2.617188 0.125 1.878906 -0.179688 1.328125 -0.796875 C 0.773438 -1.410156 0.5 -2.238281 0.5 -3.28125 C 0.5 -4.3125 0.773438 -5.132812 1.328125 -5.75 C 1.878906 -6.375 2.617188 -6.6875 3.546875 -6.6875 Z M 3.546875 -6.6875 "/>
</symbol>
<symbol overflow="visible" id="glyph0-2">
<path style="stroke:none;" d="M 0.890625 -6.5625 L 2.078125 -6.5625 L 4.984375 -1.078125 L 4.984375 -6.5625 L 5.84375 -6.5625 L 5.84375 0 L 4.65625 0 L 1.75 -5.484375 L 1.75 0 L 0.890625 0 Z M 0.890625 -6.5625 "/>
</symbol>
<symbol overflow="visible" id="glyph0-3">
<path style="stroke:none;" d="M 0.890625 -6.5625 L 1.765625 -6.5625 L 1.765625 -3.875 L 5 -3.875 L 5 -6.5625 L 5.890625 -6.5625 L 5.890625 0 L 5 0 L 5 -3.125 L 1.765625 -3.125 L 1.765625 0 L 0.890625 0 Z M 0.890625 -6.5625 "/>
</symbol>
<symbol overflow="visible" id="glyph1-0">
<path style="stroke:none;" d="M 0.40625 1.421875 L 0.40625 -5.640625 L 4.40625 -5.640625 L 4.40625 1.421875 Z M 0.84375 0.96875 L 3.953125 0.96875 L 3.953125 -5.1875 L 0.84375 -5.1875 Z M 0.84375 0.96875 "/>
</symbol>
<symbol overflow="visible" id="glyph1-1">
<path style="stroke:none;" d="M 3.6875 -5.015625 L 3.6875 -2.84375 L 5.859375 -2.84375 L 5.859375 -2.171875 L 3.6875 -2.171875 L 3.6875 0 L 3.03125 0 L 3.03125 -2.171875 L 0.84375 -2.171875 L 0.84375 -2.84375 L 3.03125 -2.84375 L 3.03125 -5.015625 Z M 3.6875 -5.015625 "/>
</symbol>
</g>
</defs>
<g id="surface15925">
<rect x="0" y="0" width="300" height="300" style="fill:rgb(100%,100%,100%);fill-opacity:1;stroke:none;"/>
<path style="fill:none;stroke-width:1.2;stroke-linecap:butt;stroke-linejoin:miter;stroke:rgb(100%,0%,0%);stroke-opacity:1;stroke-miterlimit:10;" d="M 58.042969 168.402344 L 66.105469 159.898438 "/>
<path style="fill:none;stroke-width:1.2;stroke-linecap:butt;stroke-linejoin:miter;stroke:rgb(0%,0%,0%);stroke-opacity:1;stroke-miterlimit:10;" d="M 66.105469 159.898438 L 74.171875 151.394531 "/>
<path style="fill:none;stroke-width:1.2;stroke-linecap:butt;stroke-linejoin:miter;stroke:rgb(100%,0%,0%);stroke-opacity:1;stroke-miterlimit:10;" d="M 58.042969 168.402344 L 46.644531 165.667969 "/>
<path style="fill:none;stroke-width:1.2;stroke-linecap:butt;stroke-linejoin:miter;stroke:rgb(0%,0%,0%);stroke-opacity:1;stroke-miterlimit:10;" d="M 46.644531 165.667969 L 35.25 162.9375 "/>
<path style=" stroke:none;fill-rule:nonzero;fill:rgb(100%,100%,100%);fill-opacity:1;" d="M 54.042969 162.902344 L 62.042969 162.902344 L 62.042969 173.902344 L 54.042969 173.902344 Z M 54.042969 162.902344 "/>
<g style="fill:rgb(100%,0%,0%);fill-opacity:1;">
  <use xlink:href="#glyph0-1" x="54.042969" y="171.56543"/>
</g>
<path style="fill:none;stroke-width:1.2;stroke-linecap:butt;stroke-linejoin:miter;stroke:rgb(0%,0%,0%);stroke-opacity:1;stroke-miterlimit:10;" d="M 76.816406 150.609375 L 73.480469 139.375 "/>
<path style="fill:none;stroke-width:1.2;stroke-linecap:butt;stroke-linejoin:miter;stroke:rgb(100%,0%,0%);stroke-opacity:1;stroke-miterlimit:10;" d="M 73.480469 139.375 L 70.148438 128.136719 "/>
<path style="fill:none;stroke-width:1.2;stroke-linecap:butt;stroke-linejoin:miter;stroke:rgb(0%,0%,0%);stroke-opacity:1;stroke-miterlimit:10;" d="M 71.527344 152.175781 L 68.195312 140.941406 "/>
<path style="fill:none;stroke-width:1.2;stroke-linecap:butt;stroke-linejoin:miter;stroke:rgb(100%,0%,0%);stroke-opacity:1;stroke-miterlimit:10;" d="M 68.195312 140.941406 L 64.863281 129.707031 "/>
<path style="fill:none;stroke-width:1.2;stroke-linecap:butt;stroke-linejoin:miter;stroke:rgb(0%,0%,0%);stroke-opacity:1;stroke-miterlimit:10;" d="M 74.171875 151.394531 L 96.964844 156.855469 "/>
<path style=" stroke:none;fill-rule:nonzero;fill:rgb(100%,100%,100%);fill-opacity:1;" d="M 63.503906 123.421875 L 71.503906 123.421875 L 71.503906 134.421875 L 63.503906 134.421875 Z M 63.503906 123.421875 "/>
<g style="fill:rgb(100%,0%,0%);fill-opacity:1;">
  <use xlink:href="#glyph0-1" x="63.503906" y="132.084961"/>
</g>
<path style="fill:none;stroke-width:1.2;stroke-linecap:butt;stroke-linejoin:miter;stroke:rgb(0%,0%,0%);stroke-opacity:1;stroke-miterlimit:10;" d="M 96.964844 156.855469 L 105.941406 178.507812 "/>
<path style="fill:none;stroke-width:1.2;stroke-linecap:butt;stroke-linejoin:miter;stroke:rgb(0%,0%,0%);stroke-opacity:1;stroke-miterlimit:10;" d="M 102.957031 156.910156 L 110.136719 174.230469 "/>
<path style="fill:none;stroke-width:1.2;stroke-linecap:butt;stroke-linejoin:miter;stroke:rgb(0%,0%,0%);stroke-opacity:1;stroke-miterlimit:10;" d="M 114.78125 141.628906 L 96.964844 156.855469 "/>
<path style="fill:none;stroke-width:1.2;stroke-linecap:butt;stroke-linejoin:miter;stroke:rgb(0%,0%,0%);stroke-opacity:1;stroke-miterlimit:10;" d="M 105.941406 178.507812 L 117.625 177.582031 "/>
<path style="fill:none;stroke-width:1.2;stroke-linecap:butt;stroke-linejoin:miter;stroke:rgb(0%,0%,100%);stroke-opacity:1;stroke-miterlimit:10;" d="M 117.625 177.582031 L 129.308594 176.660156 "/>
<path style="fill:none;stroke-width:1.2;stroke-linecap:butt;stroke-linejoin:miter;stroke:rgb(0%,0%,100%);stroke-opacity:1;stroke-miterlimit:10;" d="M 129.308594 176.660156 L 146.3125 192.789062 "/>
<path style="fill:none;stroke-width:1.2;stroke-linecap:butt;stroke-linejoin:miter;stroke:rgb(0%,0%,0%);stroke-opacity:1;stroke-miterlimit:10;" d="M 134.769531 153.867188 L 132.039062 165.261719 "/>
<path style="fill:none;stroke-width:1.2;stroke-linecap:butt;stroke-linejoin:miter;stroke:rgb(0%,0%,100%);stroke-opacity:1;stroke-miterlimit:10;" d="M 132.039062 165.261719 L 129.308594 176.660156 "/>
<path style=" stroke:none;fill-rule:nonzero;fill:rgb(100%,100%,100%);fill-opacity:1;" d="M 126.308594 171.160156 L 133.308594 171.160156 L 133.308594 182.160156 L 126.308594 182.160156 Z M 126.308594 171.160156 "/>
<g style="fill:rgb(0%,0%,100%);fill-opacity:1;">
  <use xlink:href="#glyph0-2" x="126.308594" y="179.823242"/>
</g>
<path style="fill:none;stroke-width:1.2;stroke-linecap:butt;stroke-linejoin:miter;stroke:rgb(0%,0%,100%);stroke-opacity:1;stroke-miterlimit:10;" d="M 146.3125 192.789062 L 157.550781 189.457031 "/>
<path style="fill:none;stroke-width:1.2;stroke-linecap:butt;stroke-linejoin:miter;stroke:rgb(0%,0%,0%);stroke-opacity:1;stroke-miterlimit:10;" d="M 157.550781 189.457031 L 168.785156 186.121094 "/>
<path style="fill:none;stroke-width:1.2;stroke-linecap:butt;stroke-linejoin:miter;stroke:rgb(0%,0%,100%);stroke-opacity:1;stroke-miterlimit:10;" d="M 146.992188 186.835938 L 155.980469 184.167969 "/>
<path style="fill:none;stroke-width:1.2;stroke-linecap:butt;stroke-linejoin:miter;stroke:rgb(0%,0%,0%);stroke-opacity:1;stroke-miterlimit:10;" d="M 155.980469 184.167969 L 164.96875 181.503906 "/>
<path style=" stroke:none;fill-rule:nonzero;fill:rgb(100%,100%,100%);fill-opacity:1;" d="M 143.3125 187.289062 L 150.3125 187.289062 L 150.3125 198.289062 L 143.3125 198.289062 Z M 143.3125 187.289062 "/>
<g style="fill:rgb(0%,0%,100%);fill-opacity:1;">
  <use xlink:href="#glyph0-2" x="143.3125" y="195.952148"/>
</g>
<path style="fill:none;stroke-width:1.2;stroke-linecap:butt;stroke-linejoin:miter;stroke:rgb(0%,0%,0%);stroke-opacity:1;stroke-miterlimit:10;" d="M 168.785156 186.121094 L 171.515625 174.726562 "/>
<path style="fill:none;stroke-width:1.2;stroke-linecap:butt;stroke-linejoin:miter;stroke:rgb(0%,0%,100%);stroke-opacity:1;stroke-miterlimit:10;" d="M 171.515625 174.726562 L 174.25 163.328125 "/>
<path style="fill:none;stroke-width:1.2;stroke-linecap:butt;stroke-linejoin:miter;stroke:rgb(0%,0%,100%);stroke-opacity:1;stroke-miterlimit:10;" d="M 174.25 163.328125 L 165.746094 155.265625 "/>
<path style="fill:none;stroke-width:1.2;stroke-linecap:butt;stroke-linejoin:miter;stroke:rgb(0%,0%,0%);stroke-opacity:1;stroke-miterlimit:10;" d="M 165.746094 155.265625 L 157.242188 147.203125 "/>
<path style="fill:none;stroke-width:1.2;stroke-linecap:butt;stroke-linejoin:miter;stroke:rgb(0%,0%,100%);stroke-opacity:1;stroke-miterlimit:10;" d="M 168.753906 165.71875 L 161.949219 159.269531 "/>
<path style="fill:none;stroke-width:1.2;stroke-linecap:butt;stroke-linejoin:miter;stroke:rgb(0%,0%,0%);stroke-opacity:1;stroke-miterlimit:10;" d="M 161.949219 159.269531 L 155.148438 152.816406 "/>
<path style=" stroke:none;fill-rule:nonzero;fill:rgb(100%,100%,100%);fill-opacity:1;" d="M 164.25 155.828125 L 185.25 155.828125 L 185.25 170.828125 L 164.25 170.828125 Z M 164.25 155.828125 "/>
<g style="fill:rgb(0%,0%,100%);fill-opacity:1;">
  <use xlink:href="#glyph0-2" x="164.25" y="167.929688"/>
  <use xlink:href="#glyph0-3" x="171.227539" y="167.929688"/>
</g>
<g style="fill:rgb(0%,0%,100%);fill-opacity:1;">
  <use xlink:href="#glyph1-1" x="178.242188" y="163.046875"/>
</g>
<path style="fill:none;stroke-width:1.2;stroke-linecap:butt;stroke-linejoin:miter;stroke:rgb(0%,0%,0%);stroke-opacity:1;stroke-miterlimit:10;" d="M 157.242188 147.203125 L 159.972656 135.804688 "/>
<path style="fill:none;stroke-width:1.2;stroke-linecap:butt;stroke-linejoin:miter;stroke:rgb(0%,0%,100%);stroke-opacity:1;stroke-miterlimit:10;" d="M 159.972656 135.804688 L 162.703125 124.410156 "/>
<path style="fill:none;stroke-width:1.2;stroke-linecap:butt;stroke-linejoin:miter;stroke:rgb(0%,0%,0%);stroke-opacity:1;stroke-miterlimit:10;" d="M 157.242188 147.203125 L 134.769531 153.867188 "/>
<path style="fill:none;stroke-width:1.2;stroke-linecap:butt;stroke-linejoin:miter;stroke:rgb(0%,0%,100%);stroke-opacity:1;stroke-miterlimit:10;" d="M 162.703125 124.410156 L 173.941406 121.078125 "/>
<path style="fill:none;stroke-width:1.2;stroke-linecap:butt;stroke-linejoin:miter;stroke:rgb(0%,0%,0%);stroke-opacity:1;stroke-miterlimit:10;" d="M 173.941406 121.078125 L 185.175781 117.746094 "/>
<path style=" stroke:none;fill-rule:nonzero;fill:rgb(100%,100%,100%);fill-opacity:1;" d="M 155.703125 118.910156 L 169.703125 118.910156 L 169.703125 129.910156 L 155.703125 129.910156 Z M 155.703125 118.910156 "/>
<g style="fill:rgb(0%,0%,100%);fill-opacity:1;">
  <use xlink:href="#glyph0-2" x="155.703125" y="127.573242"/>
  <use xlink:href="#glyph0-3" x="162.680664" y="127.573242"/>
</g>
<path style="fill:none;stroke-width:1.2;stroke-linecap:butt;stroke-linejoin:miter;stroke:rgb(0%,0%,0%);stroke-opacity:1;stroke-miterlimit:10;" d="M 185.175781 117.746094 L 202.183594 133.871094 "/>
<path style="fill:none;stroke-width:1.2;stroke-linecap:butt;stroke-linejoin:miter;stroke:rgb(0%,0%,0%);stroke-opacity:1;stroke-miterlimit:10;" d="M 190.671875 115.355469 L 204.277344 128.257812 "/>
<path style="fill:none;stroke-width:1.2;stroke-linecap:butt;stroke-linejoin:miter;stroke:rgb(0%,0%,0%);stroke-opacity:1;stroke-miterlimit:10;" d="M 190.640625 94.953125 L 185.175781 117.746094 "/>
<path style="fill:none;stroke-width:1.2;stroke-linecap:butt;stroke-linejoin:miter;stroke:rgb(0%,0%,0%);stroke-opacity:1;stroke-miterlimit:10;" d="M 202.183594 133.871094 L 224.652344 127.207031 "/>
<path style="fill:none;stroke-width:1.2;stroke-linecap:butt;stroke-linejoin:miter;stroke:rgb(0%,0%,0%);stroke-opacity:1;stroke-miterlimit:10;" d="M 224.652344 127.207031 L 230.117188 104.414062 "/>
<path style="fill:none;stroke-width:1.2;stroke-linecap:butt;stroke-linejoin:miter;stroke:rgb(0%,0%,0%);stroke-opacity:1;stroke-miterlimit:10;" d="M 219.835938 123.640625 L 224.207031 105.40625 "/>
<path style="fill:none;stroke-width:1.2;stroke-linecap:butt;stroke-linejoin:miter;stroke:rgb(0%,0%,0%);stroke-opacity:1;stroke-miterlimit:10;" d="M 224.652344 127.207031 L 241.660156 143.335938 "/>
<path style="fill:none;stroke-width:1.2;stroke-linecap:butt;stroke-linejoin:miter;stroke:rgb(0%,0%,0%);stroke-opacity:1;stroke-miterlimit:10;" d="M 230.117188 104.414062 L 213.109375 88.285156 "/>
<path style="fill:none;stroke-width:1.2;stroke-linecap:butt;stroke-linejoin:miter;stroke:rgb(0%,0%,0%);stroke-opacity:1;stroke-miterlimit:10;" d="M 213.109375 88.285156 L 190.640625 94.953125 "/>
<path style="fill:none;stroke-width:1.2;stroke-linecap:butt;stroke-linejoin:miter;stroke:rgb(0%,0%,0%);stroke-opacity:1;stroke-miterlimit:10;" d="M 212.429688 94.238281 L 194.453125 99.570312 "/>
<path style="fill:none;stroke-width:1.2;stroke-linecap:butt;stroke-linejoin:miter;stroke:rgb(0%,0%,0%);stroke-opacity:1;stroke-miterlimit:10;" d="M 190.640625 94.953125 L 173.632812 78.824219 "/>
<path style="fill:none;stroke-width:1.2;stroke-linecap:butt;stroke-linejoin:miter;stroke:rgb(0%,0%,0%);stroke-opacity:1;stroke-miterlimit:10;" d="M 242.445312 145.980469 L 253.679688 142.644531 "/>
<path style="fill:none;stroke-width:1.2;stroke-linecap:butt;stroke-linejoin:miter;stroke:rgb(100%,0%,0%);stroke-opacity:1;stroke-miterlimit:10;" d="M 253.679688 142.644531 L 264.917969 139.3125 "/>
<path style="fill:none;stroke-width:1.2;stroke-linecap:butt;stroke-linejoin:miter;stroke:rgb(0%,0%,0%);stroke-opacity:1;stroke-miterlimit:10;" d="M 240.878906 140.691406 L 252.113281 137.359375 "/>
<path style="fill:none;stroke-width:1.2;stroke-linecap:butt;stroke-linejoin:miter;stroke:rgb(100%,0%,0%);stroke-opacity:1;stroke-miterlimit:10;" d="M 252.113281 137.359375 L 263.347656 134.027344 "/>
<path style="fill:none;stroke-width:1.2;stroke-linecap:butt;stroke-linejoin:miter;stroke:rgb(0%,0%,0%);stroke-opacity:1;stroke-miterlimit:10;" d="M 241.660156 143.335938 L 238.929688 154.730469 "/>
<path style="fill:none;stroke-width:1.2;stroke-linecap:butt;stroke-linejoin:miter;stroke:rgb(0%,0%,100%);stroke-opacity:1;stroke-miterlimit:10;" d="M 238.929688 154.730469 L 236.199219 166.128906 "/>
<path style=" stroke:none;fill-rule:nonzero;fill:rgb(100%,100%,100%);fill-opacity:1;" d="M 260.132812 131.171875 L 268.132812 131.171875 L 268.132812 142.171875 L 260.132812 142.171875 Z M 260.132812 131.171875 "/>
<g style="fill:rgb(100%,0%,0%);fill-opacity:1;">
  <use xlink:href="#glyph0-1" x="260.132812" y="139.834961"/>
</g>
<path style="fill:none;stroke-width:1.2;stroke-linecap:butt;stroke-linejoin:miter;stroke:rgb(0%,0%,100%);stroke-opacity:1;stroke-miterlimit:10;" d="M 236.199219 166.128906 L 244.703125 174.191406 "/>
<path style="fill:none;stroke-width:1.2;stroke-linecap:butt;stroke-linejoin:miter;stroke:rgb(100%,0%,0%);stroke-opacity:1;stroke-miterlimit:10;" d="M 244.703125 174.191406 L 253.207031 182.253906 "/>
<path style=" stroke:none;fill-rule:nonzero;fill:rgb(100%,100%,100%);fill-opacity:1;" d="M 229.199219 160.628906 L 243.199219 160.628906 L 243.199219 171.628906 L 229.199219 171.628906 Z M 229.199219 160.628906 "/>
<g style="fill:rgb(0%,0%,100%);fill-opacity:1;">
  <use xlink:href="#glyph0-2" x="229.199219" y="169.291992"/>
  <use xlink:href="#glyph0-3" x="236.176758" y="169.291992"/>
</g>
<path style="fill:none;stroke-width:1.2;stroke-linecap:butt;stroke-linejoin:miter;stroke:rgb(100%,0%,0%);stroke-opacity:1;stroke-miterlimit:10;" d="M 253.207031 182.253906 L 250.472656 193.652344 "/>
<path style="fill:none;stroke-width:1.2;stroke-linecap:butt;stroke-linejoin:miter;stroke:rgb(0%,0%,0%);stroke-opacity:1;stroke-miterlimit:10;" d="M 250.472656 193.652344 L 247.742188 205.046875 "/>
<path style=" stroke:none;fill-rule:nonzero;fill:rgb(100%,100%,100%);fill-opacity:1;" d="M 249.207031 176.753906 L 257.207031 176.753906 L 257.207031 187.753906 L 249.207031 187.753906 Z M 249.207031 176.753906 "/>
<g style="fill:rgb(100%,0%,0%);fill-opacity:1;">
  <use xlink:href="#glyph0-1" x="249.207031" y="185.416992"/>
</g>
<path style="fill:none;stroke-width:1.2;stroke-linecap:butt;stroke-linejoin:miter;stroke:rgb(0%,0%,0%);stroke-opacity:1;stroke-miterlimit:10;" d="M 247.742188 205.046875 L 264.75 221.175781 "/>
<path style="fill:none;stroke-width:1.2;stroke-linecap:butt;stroke-linejoin:miter;stroke:rgb(0%,0%,0%);stroke-opacity:1;stroke-miterlimit:10;" d="M 134.769531 153.867188 L 114.78125 141.628906 "/>
<path style="fill:none;stroke-width:1.2;stroke-linecap:butt;stroke-linejoin:miter;stroke:rgb(0%,0%,0%);stroke-opacity:1;stroke-miterlimit:10;" d="M 129.890625 157.347656 L 113.898438 147.554688 "/>
<path style="fill:none;stroke-width:1.2;stroke-linecap:butt;stroke-linejoin:miter;stroke:rgb(0%,0%,0%);stroke-opacity:1;stroke-miterlimit:10;" d="M 114.78125 141.628906 L 112.933594 118.261719 "/>
</g>
</svg>

<svg xmlns="http://www.w3.org/2000/svg" xmlns:xlink="http://www.w3.org/1999/xlink" width="300pt" height="300pt" viewBox="0 0 300 300"><defs><symbol overflow="visible"><path d="M.453 1.594v-7.938h4.5v7.938zm.5-.5h3.5v-6.938h-3.5zm0 0"/></symbol><symbol overflow="visible" id="a"><path d="M3.547-5.953c-.65 0-1.164.242-1.547.72-.375.48-.563 1.13-.563 1.952 0 .835.188 1.49.563 1.967.383.48.898.72 1.547.72.644 0 1.156-.24 1.53-.72.376-.476.564-1.132.564-1.968 0-.822-.187-1.474-.562-1.954-.375-.477-.887-.72-1.53-.72zm0-.734c.914 0 1.648.312 2.203.937.55.617.828 1.438.828 2.47 0 1.042-.277 1.87-.828 2.483-.555.617-1.29.922-2.203.922-.93 0-1.668-.305-2.22-.922C.774-1.41.5-2.237.5-3.28c0-1.033.273-1.853.828-2.47.55-.625 1.29-.938 2.22-.938zm0 0"/></symbol><symbol overflow="visible" id="b"><path d="M.89-6.563H2.08l2.906 5.485v-5.484h.86V0H4.656L1.75-5.484V0H.89zm0 0"/></symbol><symbol overflow="visible" id="c"><path d="M.89-6.563h.876v2.688H5v-2.688h.89V0H5v-3.125H1.766V0H.89zm0 0"/></symbol><symbol overflow="visible"><path d="M.406 1.422V-5.64h4V1.42zM.844.97h3.11v-6.157H.843zm0 0"/></symbol><symbol overflow="visible" id="d"><path d="M3.688-5.016v2.172h2.17v.672H3.69V0H3.03v-2.172H.845v-.672H3.03v-2.172zm0 0"/></symbol></defs><g><path fill="#fff" d="M0 0h300v300H0z"/><path d="M58.043 168.402l8.062-8.504" stroke-width="1.2" stroke="#f00" stroke-miterlimit="10" fill="none"/><path d="M66.105 159.898l8.067-8.503" stroke-width="1.2" stroke="#000" stroke-miterlimit="10" fill="none"/><path d="M58.043 168.402l-11.398-2.734" stroke-width="1.2" stroke="#f00" stroke-miterlimit="10" fill="none"/><path d="M46.645 165.668l-11.395-2.73" stroke-width="1.2" stroke="#000" stroke-miterlimit="10" fill="none"/><path d="M54.043 162.902h8v11h-8zm0 0" fill="#fff"/><use xlink:href="#a" x="54.043" y="171.565" fill="#f00"/><path d="M76.816 150.61l-3.336-11.235" stroke-width="1.2" stroke="#000" stroke-miterlimit="10" fill="none"/><path d="M73.48 139.375l-3.332-11.238" stroke-width="1.2" stroke="#f00" stroke-miterlimit="10" fill="none"/><path d="M71.527 152.176l-3.332-11.235" stroke-width="1.2" stroke="#000" stroke-miterlimit="10" fill="none"/><path d="M68.195 140.94l-3.332-11.233" stroke-width="1.2" stroke="#f00" stroke-miterlimit="10" fill="none"/><path d="M74.172 151.395l22.793 5.46" stroke-width="1.2" stroke="#000" stroke-miterlimit="10" fill="none"/><path d="M63.504 123.422h8v11h-8zm0 0" fill="#fff"/><use xlink:href="#a" x="63.504" y="132.085" fill="#f00"/><path d="M96.965 156.855l8.976 21.653M102.957 156.91l7.18 17.32M114.78 141.63l-17.815 15.225M105.94 178.508l11.685-.926" stroke-width="1.2" stroke="#000" stroke-miterlimit="10" fill="none"/><path d="M117.625 177.582l11.684-.922M129.31 176.66l17.002 16.13" stroke-width="1.2" stroke="#00f" stroke-miterlimit="10" fill="none"/><path d="M134.77 153.867l-2.73 11.395" stroke-width="1.2" stroke="#000" stroke-miterlimit="10" fill="none"/><path d="M132.04 165.262l-2.73 11.398" stroke-width="1.2" stroke="#00f" stroke-miterlimit="10" fill="none"/><path d="M126.31 171.16h7v11h-7zm0 0" fill="#fff"/><use xlink:href="#b" x="126.309" y="179.823" fill="#00f"/><path d="M146.313 192.79l11.238-3.333" stroke-width="1.2" stroke="#00f" stroke-miterlimit="10" fill="none"/><path d="M157.55 189.457l11.235-3.336" stroke-width="1.2" stroke="#000" stroke-miterlimit="10" fill="none"/><path d="M146.992 186.836l8.988-2.668" stroke-width="1.2" stroke="#00f" stroke-miterlimit="10" fill="none"/><path d="M155.98 184.168l8.99-2.664" stroke-width="1.2" stroke="#000" stroke-miterlimit="10" fill="none"/><path d="M143.313 187.29h7v11h-7zm0 0" fill="#fff"/><use xlink:href="#b" x="143.313" y="195.952" fill="#00f"/><path d="M168.785 186.12l2.73-11.393" stroke-width="1.2" stroke="#000" stroke-miterlimit="10" fill="none"/><path d="M171.516 174.727l2.734-11.4M174.25 163.328l-8.504-8.062" stroke-width="1.2" stroke="#00f" stroke-miterlimit="10" fill="none"/><path d="M165.746 155.266l-8.504-8.063" stroke-width="1.2" stroke="#000" stroke-miterlimit="10" fill="none"/><path d="M168.754 165.72l-6.805-6.45" stroke-width="1.2" stroke="#00f" stroke-miterlimit="10" fill="none"/><path d="M161.95 159.27l-6.802-6.454" stroke-width="1.2" stroke="#000" stroke-miterlimit="10" fill="none"/><path d="M164.25 155.828h21v15h-21zm0 0" fill="#fff"/><g fill="#00f"><use xlink:href="#b" x="164.25" y="167.93"/><use xlink:href="#c" x="171.228" y="167.93"/></g><use xlink:href="#d" x="178.242" y="163.047" fill="#00f"/><path d="M157.242 147.203l2.73-11.398" stroke-width="1.2" stroke="#000" stroke-miterlimit="10" fill="none"/><path d="M159.973 135.805l2.73-11.395" stroke-width="1.2" stroke="#00f" stroke-miterlimit="10" fill="none"/><path d="M157.242 147.203l-22.472 6.664" stroke-width="1.2" stroke="#000" stroke-miterlimit="10" fill="none"/><path d="M162.703 124.41l11.238-3.332" stroke-width="1.2" stroke="#00f" stroke-miterlimit="10" fill="none"/><path d="M173.94 121.078l11.236-3.332" stroke-width="1.2" stroke="#000" stroke-miterlimit="10" fill="none"/><path d="M155.703 118.91h14v11h-14zm0 0" fill="#fff"/><g fill="#00f"><use xlink:href="#b" x="155.703" y="127.573"/><use xlink:href="#c" x="162.681" y="127.573"/></g><path d="M185.176 117.746l17.008 16.125M190.672 115.355l13.605 12.903M190.64 94.953l-5.464 22.793M202.184 133.87l22.468-6.663M224.652 127.207l5.465-22.793M219.836 123.64l4.37-18.234M224.652 127.207l17.008 16.13M230.117 104.414l-17.008-16.13M213.11 88.285l-22.47 6.668M212.43 94.238l-17.977 5.332M190.64 94.953l-17.007-16.13M242.445 145.98l11.235-3.335" stroke-width="1.2" stroke="#000" stroke-miterlimit="10" fill="none"/><path d="M253.68 142.645l11.238-3.333" stroke-width="1.2" stroke="#f00" stroke-miterlimit="10" fill="none"/><path d="M240.88 140.69l11.233-3.33" stroke-width="1.2" stroke="#000" stroke-miterlimit="10" fill="none"/><path d="M252.113 137.36l11.235-3.333" stroke-width="1.2" stroke="#f00" stroke-miterlimit="10" fill="none"/><path d="M241.66 143.336l-2.73 11.394" stroke-width="1.2" stroke="#000" stroke-miterlimit="10" fill="none"/><path d="M238.93 154.73l-2.73 11.4" stroke-width="1.2" stroke="#00f" stroke-miterlimit="10" fill="none"/><path d="M260.133 131.172h8v11h-8zm0 0" fill="#fff"/><use xlink:href="#a" x="260.133" y="139.835" fill="#f00"/><path d="M236.2 166.13l8.503 8.06" stroke-width="1.2" stroke="#00f" stroke-miterlimit="10" fill="none"/><path d="M244.703 174.19l8.504 8.064" stroke-width="1.2" stroke="#f00" stroke-miterlimit="10" fill="none"/><path d="M229.2 160.63h14v11h-14zm0 0" fill="#fff"/><g fill="#00f"><use xlink:href="#b" x="229.199" y="169.292"/><use xlink:href="#c" x="236.177" y="169.292"/></g><path d="M253.207 182.254l-2.734 11.398" stroke-width="1.2" stroke="#f00" stroke-miterlimit="10" fill="none"/><path d="M250.473 193.652l-2.73 11.395" stroke-width="1.2" stroke="#000" stroke-miterlimit="10" fill="none"/><path d="M249.207 176.754h8v11h-8zm0 0" fill="#fff"/><use xlink:href="#a" x="249.207" y="185.417" fill="#f00"/><path d="M247.742 205.047l17.008 16.13M134.77 153.867l-19.99-12.238M129.89 157.348l-15.992-9.793M114.78 141.63l-1.846-23.368" stroke-width="1.2" stroke="#000" stroke-miterlimit="10" fill="none"/></g></svg>
